X: 1711
T: Midnight Waltz
B: australian traditional tunes wiki
M:3/4
L:1/8
R: Waltz
Q: 1/4=100
K:D
V:1 
FG|:"D"A2^G2A2|d2"A7"c2B2|"D"A6|F4F2|A3^GA2|"G"B4A2|"A7"C6-|C6|
"Em"G2F2G2|B2c2e2|"D"d3ed2|F4FG|"D"A2zAG2|F2zFE2|1"D"D2B,2A,2|D2C2D2:|2"D"D2F2A2|d4||
% abcbook-tune_id 6342d53a886c5c890cb90d72


% abcbook-boost 0
% abcbook-tablature 
% abcbook-transpose 
% abcbook-lastupdated 1665324379321
% abcbook-soundfonts 
% abcbook-repeats 1
% NFF Book 2020

